X: 5866
T: Callum's
R: polka
M: 2/4
K: Dmajor
|:D>E FA|BA FA|dA FA|fd e2|
D>E FA|BA FA|dB AF|1 EF/E/ DB,:|2 ED D2||
|:f>g fe|dB A2|f>g fg|af e2|
f>g fe|dB A2|1 Bd AF|ED D2:|2 Bd Ad|Fd Ed||

